X:1
T:Greensleeves
C:Traditional English
M:3/4
L:1/8
Q:1/4=120
K:Am
A2|c2d2e2|f2e2d2|B2G2E2|F2G2A2|A2A2^G2|A2B2^G2|E4E2|E6|c2d2e2|f2e2d2|B2G2E2|F2G2A2|A2^G2F2|^G2A4|A6-|A4:|
